X: 6099
T: Captain Campbell
R: strathspey
M: 4/4
K: Adorian
E>AA>B c2 B>A|G>Bd>c B<GG>D|
A>aa>g a>bg>e|d>Bg>d B>AG>B|
E<AA>B c2 B<A|D<GG>A B2 c/B/A/G/|
A<aa>g e2 c<e|d>eg>e d/c/B/A/ G2|

